icons/2_Variations/Zipmex bg.var.svg

<svg width="1024" height="1024" fill="none" xmlns="http://www.w3.org/2000/svg"><g clip-path="url(#a)"><path d="M512 1024c282.77 0 512-229.23 512-512S794.77 0 512 0 0 229.23 0 512s229.23 512 512 512Z" fill="#54688C"/><path d="m567.22 477.29 68.89-148.45a24.432 24.432 0 0 0-10.552-31.777 24.428 24.428 0 0 0-11.808-2.933h-216a24.861 24.861 0 0 0-22.58 14.62l-78.51 168.54A24.432 24.432 0 0 0 319 512h115.45a24.668 24.668 0 0 1 24.539 22.945 24.67 24.67 0 0 1-2.179 11.995l-69.13 148.22a24.64 24.64 0 0 0 1.841 23.501 24.658 24.658 0 0 0 20.739 11.209h216a24.877 24.877 0 0 0 22.58-14.62l78.47-168.31a24.654 24.654 0 0 0-1.693-23.649A24.656 24.656 0 0 0 704.77 512h-115.2a24.437 24.437 0 0 1-24.564-22.748 24.443 24.443 0 0 1 2.204-11.962h.01Z" fill="#fff"/></g><defs><clipPath id="a"><path fill="#fff" d="M0 0h1024v1024H0z"/></clipPath></defs></svg>

<svg width="1024" height="1024" viewBox="0 0 1024 1024" fill="none" xmlns="http://www.w3.org/2000/svg">
<g clip-path="url(#clip0_3_362)">
<path d="M512 1024C794.77 1024 1024 794.77 1024 512C1024 229.23 794.77 0 512 0C229.23 0 0 229.23 0 512C0 794.77 229.23 1024 512 1024Z" fill="#54688C"/>
<path d="M567.22 477.29L636.11 328.84C637.844 325.102 638.605 320.986 638.321 316.875C638.037 312.765 636.718 308.793 634.486 305.329C632.255 301.865 629.183 299.022 625.558 297.063C621.932 295.105 617.87 294.096 613.75 294.13H397.75C392.98 294.144 388.316 295.53 384.312 298.122C380.308 300.714 377.135 304.403 375.17 308.75L296.66 477.29C294.927 481.026 294.166 485.14 294.449 489.249C294.732 493.358 296.05 497.329 298.279 500.792C300.508 504.256 303.576 507.099 307.199 509.059C310.822 511.018 314.881 512.03 319 512H434.45C438.578 512.012 442.636 513.059 446.254 515.046C449.872 517.032 452.934 519.895 455.159 523.372C457.384 526.848 458.701 530.828 458.989 534.945C459.278 539.063 458.528 543.187 456.81 546.94L387.68 695.16C385.999 698.919 385.287 703.04 385.609 707.145C385.931 711.25 387.276 715.21 389.521 718.661C391.767 722.113 394.841 724.948 398.464 726.905C402.087 728.863 406.142 729.882 410.26 729.87H626.26C631.029 729.854 635.694 728.468 639.697 725.876C643.701 723.284 646.874 719.595 648.84 715.25L727.31 546.94C729.038 543.173 729.788 539.032 729.492 534.899C729.196 530.766 727.864 526.773 725.617 523.291C723.371 519.809 720.283 516.949 716.64 514.976C712.996 513.002 708.914 511.979 704.77 512H589.57C585.451 512.031 581.39 511.02 577.766 509.061C574.142 507.102 571.072 504.259 568.841 500.796C566.61 497.333 565.291 493.362 565.006 489.252C564.721 485.143 565.479 481.028 567.21 477.29H567.22Z" fill="white"/>
</g>
<defs>
<clipPath id="clip0_3_362">
<rect width="1024" height="1024" fill="white"/>
</clipPath>
</defs>
</svg>
